X: 1598
T: Ann Maguire's Silver Wedding
R: waltz
M: 3/4
K: Dmajor
(3ABc|:"D"(d2 "d"d) B {d}"d"BA|"G"(B2 "g"B) A {B}"g"AF|"D"A2 "d"d2 "d"(3FED|"G"(A2 "g"A)B/A/ "g"G2|
"D"(F2 "d"F) E "d"D2|"D"D2 "d"A2 "d"AB|"G"(G2 "g"G) E {G}"g"ED|"A"(E2 "a"E2) "a"(3ABc|
"D"(d2 "d"d) f "d"ed|"G"(B2 "g"B) A {B}"g"AF|"D"A2 "d"d2 "d"(3FED|"G"(A2 "g"A)B/A/ "g"G2|
"D"(F2 "d"F) E "d"D2|"A"E2 "a"A2 "a"AB|"G"(D2 "g"D) E "A"DC|1 "D"(D2 "d"D2) (3ABc:|2 "D"(D2 "d"D) D"d"EF||
"G"(G2 "g"G2) "g"FG|"D" (A2 "d"A) A "d"BA|"D"A2 "d"(f2 "d"f) e|"D"(d2 "d"d) B {d}"d"BA|
"G" (B2 "g"B) c"g"dB|"D"A2 "d"D2 "d"FA|"G"(A2 "g"A) G "g"F2|"A"(E2 "a"E2) "a"EF|
"G"(G2 "g"G) G "g"FG|"D"(A2 "d"A) A "d"BA|"D"A2 "d"(f2 "d"f) e|"D"(d2 "d"d) d "d"cB|
"D"A2 "d"d2 "d"F2|"G" (G2 "g"G) F "g"EA|"A"(D2 "a"D) E"a"DC|"D"(D2 "d"D) D"d"EF|
"G"(G2 "g"G2) "g"FG|"D" (A2 "d"A) A "d"BA|"D"A2 "d"(f2 "d"f) e|"D"(d2 "d"d) B {d}"d"BA|
"G"(B2 "g"B) c"g"dB|"D"(A2"d"A2) "d"f2|"G"(a2 "g"a) g "g"f2|"A"(e2 "a"e2) fe|
"D"d2 "d"f2 "d"ed|"G"(B2 "g"B) A {B}"g"AF|"D"A2 "d"d2 "d"(3FED|"G"(A2 "g"A)B/A/ "g"G2|
"D"(F2 "d"F) E "d"D2|"A"E2 "a"A2 "a"AB|"G"(D2 "g"D) E "A"DC|"D"D6||

